X: 32
T: The Flying Fish
%R: reel
B: Stewart "A Select Collection of Airs, Jigs, Marches and Reels", ca.1784, p.15 #32
F: http://imslp.org/wiki/A_Select_Collection_of_Airs,_Jigs,_Marches_and_Reels_%28Various%29
Z: 2017 John Chambers <jc:trillian.mit.edu>
M: 2/4
L: 1/16
K: G
|:\
g2ba g2d2 | Bdgb ac'af |\
g2(ba) g2d2 | (ac').a.f g4 ::\
dBdB ecec | AGFD GBdB |\
dBdB ecec | (AG).F.D G4 :|

%%sep 1 1 500
%%sep 1 1 500

